icons/folder-vue-open.svg

<svg xmlns="http://www.w3.org/2000/svg" viewBox="0 0 32 32">
  <path d="M28.96692,12H9.44152a2,2,0,0,0-1.89737,1.36754L4,24V10H28a2,2,0,0,0-2-2H15.1241a2,2,0,0,1-1.28038-.46357L12.5563,6.46357A2,2,0,0,0,11.27592,6H4A2,2,0,0,0,2,8V24a2,2,0,0,0,2,2H26l4.80523-11.21213A2,2,0,0,0,28.96692,12Z" style="fill: #009688"/>
  <g>
    <path d="M12,12.00044,22.0007,28,32,12.07746v-.077H28.11124L22.05843,21.6412l-6.02605-9.64076Z" style="fill: #41b883;fill-rule: evenodd"/>
    <path d="M16.03058,12l6.026,9.64234L28.11093,12H24.4642L22.081,15.79536,19.70767,12Z" style="fill: #35495e;fill-rule: evenodd"/>
  </g>
</svg>

<svg xmlns="http://www.w3.org/2000/svg" viewBox="0 0 32 32"><path fill="#009688" d="M28.967 12H9.442a2 2 0 0 0-1.898 1.368L4 24V10h24a2 2 0 0 0-2-2H15.124a2 2 0 0 1-1.28-.464l-1.288-1.072A2 2 0 0 0 11.276 6H4a2 2 0 0 0-2 2v16a2 2 0 0 0 2 2h22l4.805-11.212A2 2 0 0 0 28.967 12Z"/><path fill="#41b883" fill-rule="evenodd" d="m12 12 10 16 10-15.923V12h-3.889l-6.053 9.641-6.026-9.64Z"/><path fill="#35495e" fill-rule="evenodd" d="m16.03 12 6.027 9.642L28.11 12h-3.647l-2.383 3.795L19.708 12Z"/></svg>
